X: 18
T:Maid of the Mill, Longborough 1
M:6/8
L:1/8
A:Longborough
P:(A(AB)4
K:G
P:A
|:D|D>GG GFG |ABc d2D|E>EE FED|G3 G2:|
P:B
|:B/c/|d2d  d>cB|c2c c2c|ABc  d2A|G3 F2D|
D>GG GFG |ABc d2D|E>EE FED|G3 G2:|
